src/components/Icon/assets/channel-btn.svg

<svg width="24" height="24" viewBox="0 0 24 24" fill="none" xmlns="http://www.w3.org/2000/svg">
<g id="channel-btn">
<g id="Combined Shape">
<path fill-rule="evenodd" clip-rule="evenodd" d="M11.9977 17.5611C12.9156 17.5611 13.8094 17.3363 14.6196 16.9009C14.9547 16.7203 15.3567 16.7118 15.7105 16.8617L17.3042 17.5452C17.3745 17.5753 17.4524 17.5603 17.5065 17.5062C17.5612 17.4515 17.5758 17.3758 17.5451 17.3046L16.8636 15.7138C16.7106 15.3619 16.7188 14.9561 16.9004 14.6204C17.447 13.6036 17.6606 12.4572 17.5176 11.3012C17.2111 8.81571 15.1798 6.78343 12.7017 6.48129C10.9709 6.27116 9.28648 6.84803 8.06756 8.06742C6.84799 9.28652 6.27063 10.972 6.48161 12.7016C6.78331 15.1794 8.81606 17.2113 11.3021 17.5184C11.532 17.5469 11.7641 17.5611 11.9977 17.5611ZM9.21945 12.0004C9.21945 12.9514 9.4726 13.3944 10.0817 13.3944C10.6903 13.3944 10.9434 12.9513 10.9434 12.0004C10.9434 11.0495 10.6903 10.6064 10.0817 10.6064C9.4726 10.6064 9.21945 11.0494 9.21945 12.0004ZM13.9188 13.3944C13.3098 13.3944 13.0566 12.9514 13.0566 12.0004C13.0566 11.0494 13.3098 10.6064 13.9188 10.6064C14.5278 10.6064 14.7806 11.0491 14.7806 12.0004C14.7806 12.9517 14.5278 13.3944 13.9188 13.3944Z" fill="#242428"/>
<path fill-rule="evenodd" clip-rule="evenodd" d="M1 11.9004C1.05381 5.87201 5.95869 1 12 1C18.0752 1 23 5.92531 23 12C23 18.0747 18.0752 23 12 23C5.95869 23 1.05381 18.1285 1 12.0996V11.9004ZM11.9977 19.15C11.6991 19.15 11.4017 19.1318 11.1069 19.0953C7.89785 18.6989 5.29435 16.0965 4.90439 12.8938C4.63441 10.6804 5.37816 8.5092 6.94405 6.94391C8.50909 5.37827 10.6789 4.63516 12.8936 4.90404C16.097 5.29461 18.6988 7.89768 19.0945 11.1065C19.2705 12.5297 19.0236 13.9491 18.3801 15.2189L19.0051 16.6777C19.2926 17.3457 19.1444 18.1153 18.6301 18.6297C18.1166 19.1431 17.3461 19.2916 16.6784 19.0057L15.2195 18.38C14.218 18.8877 13.1205 19.15 11.9977 19.15Z" fill="#242428"/>
</g>
</g>
</svg>

<svg xmlns="http://www.w3.org/2000/svg" width="24" height="24" fill="none" viewBox="0 0 24 24">
    <path fill="#65676A" fill-rule="evenodd" d="M1 11.9C1.054 5.872 5.959 1 12 1c6.075 0 11 4.925 11 11s-4.925 11-11 11C5.959 23 1.054 18.128 1 12.1v-.2zm10.998 7.25c-.299 0-.596-.018-.891-.055-3.21-.396-5.813-2.998-6.203-6.201-.27-2.214.474-4.385 2.04-5.95 1.565-1.566 3.735-2.309 5.95-2.04 3.203.39 5.805 2.994 6.2 6.203.176 1.423-.07 2.842-.714 4.112l.625 1.459c.288.668.14 1.437-.375 1.952-.513.513-1.284.662-1.952.376l-1.459-.626c-1.001.508-2.098.77-3.221.77zm0-1.589c.918 0 1.811-.225 2.622-.66.335-.18.737-.19 1.09-.04l1.594.684c.07.03.148.015.203-.039.054-.055.069-.13.038-.201l-.681-1.591c-.153-.352-.145-.758.036-1.094.547-1.016.76-2.163.618-3.319-.307-2.485-2.338-4.518-4.816-4.82-1.731-.21-3.416.367-4.634 1.586-1.22 1.22-1.797 2.905-1.586 4.635.301 2.477 2.334 4.51 4.82 4.816.23.029.462.043.696.043zm-2.779-5.56c0 .95.254 1.393.863 1.393.608 0 .861-.443.861-1.394 0-.95-.253-1.394-.861-1.394-.61 0-.863.443-.863 1.394zm4.7 1.393c-.61 0-.862-.443-.862-1.394 0-.95.253-1.394.862-1.394s.862.443.862 1.394c0 .952-.253 1.394-.862 1.394z" clip-rule="evenodd"/>
</svg>
